X:1
T:New Brunswick, 87.87 D
T:New Brunswick, 87.87 D
T:Charles Hutchinson Gabriel, Jr., 1912
T:Public Domain Courtesy of the Cyber Hymnal™
C:Charles Hutchinson Gabriel, Jr., 1912
Z:Public Domain
Z:Courtesy of the Cyber Hymnal™
%%score ( 1 2 ) ( 3 4 )
L:1/8
Q:1/4=109
M:4/4
K:Bb
V:1 treble 
V:2 treble 
V:3 bass 
V:4 bass 
V:1
 [DB]2 [DB]2 [DA]2 [DA]2 | [DG]2 [DA]2 (GF) [B,D]2 | [Fd]2 [Fd]2 (dc) [FB]2 | [=Ec]2 [EG]2 [_Ec]4 | %4
 [DB]2 [DB]2 [DA]2 [DA]2 | [DG]2 [DA]2 (GF) [B,D]2 | [Fd]2 [Fd]2 (dc) (Bd) | [Ec]2 [Ec]2 [DB]4 | %8
 [Fd]2 [Fd]2 ([Fd][Ec]) ([DB][EG]) | [DF]2 [DF]2 ([DF][B,D]) [DF]2 | [EG]2 [FA]2 [FB]2 [Fc]2 | %11
 [Fd]2 [FB]2 [Fc]4 | [Fd]2 [Fd]2 (dc) [FB]2 | [Fe]2 [Fe]2 (ed) [Fc]2 | [FB]2 [Fc]2 [Fd]2 [Ge]2 | %15
 [Fd]2 [Ec]2 [DB]4 |] %16
V:2
 x8 | x4 D2 x2 | x4 F2 x2 | x8 | x8 | x4 D2 x2 | x4 =E2 E2 | x8 | x8 | x8 | x8 | x8 | x4 F2 x2 | %13
 x4 F2 x2 | x8 | x8 |] %16
V:3
 [B,,F,]2 [B,,F,]2 [B,,F,]2 [B,,F,]2 | [B,,B,]2 [B,,B,]2 [B,,B,]2 [B,,F,]2 | %2
 [B,,B,]2 [B,,B,]2 ([B,,B,][C,A,]) [D,B,]2 | [C,B,]2 [C,B,]2 [F,A,]4 | %4
 [B,,F,]2 [B,,F,]2 [B,,F,]2 [B,,F,]2 | [B,,B,]2 [B,,B,]2 [B,,B,]2 [B,,F,]2 | %6
 [G,=B,]2 [G,B,]2 [C,_B,]2 [C,B,]2 | [F,A,]2 [F,A,]2 [B,,B,]4 | %8
 [B,,B,]2 [B,,B,]2 [B,,B,]2 [B,,B,]2 | [B,,B,]2 [B,,B,]2 (B,F,) [B,,B,]2 | %10
 [E,B,]2 [E,C]2 [D,B,]2 [F,A,]2 | B,2 [D,B,]2 [F,A,]4 | [B,,B,]2 [B,,B,]2 ([B,,B,][C,A,]) [D,B,]2 | %13
 [C,A,]2 [C,A,]2 (CB,) A,2 | [D,B,]2 [F,A,]2 B,2 [E,B,]2 | [F,B,]2 [F,A,]2 [B,,B,]4 |] %16
V:4
 x8 | x8 | x8 | x8 | x8 | x8 | x8 | x8 | x8 | x4 B,,2 x2 | x8 | B,2 x6 | x8 | x4 F,2 (F,E,) | %14
 x4 B,2 x2 | x8 |] %16

